!!!COM:	Du Fay, Guillaume
!!!CDT:	~1397/08/05/-1474/11/27
!!!OPR:	Missa L'homme arm&eacute;
!!!ONM:	4
!!!OTL:	Sanctus
!!!AGN:	Mass; Sanctus
!!!SCT:	Duf1004d
!!!SCA:	Duf1004d
!!!voices:	4
!!!voices-OPR:	4
!!midi-transpose: -2
**kern	**text	**kern	**text	**kern	**text	**kern	**text
*staff4	*staff4	*staff3	*staff3	*staff2	*staff2	*staff1	*staff1
*Ivox	*	*Ivox	*	*Ivox	*	*Ivox	*
*I"Bassus	*	*I"Tenor	*	*I"Contratenor	*	*I"Cantus	*
*I'B	*	*I'T	*	*I'Ct	*	*I'Cn	*
*>[A,B,C,D,E]	*>[A,B,C,D,E]	*>[A,B,C,D,E]	*>[A,B,C,D,E]	*>[A,B,C,D,E]	*>[A,B,C,D,E]	*>[A,B,C,D,E]	*>[A,B,C,D,E]
*>A	*>A	*>A	*>A	*>A	*>A	*>A	*>A
*clefF4	*	*clefGv2	*	*clefGv2	*	*clefG2	*
*k[b-]	*	*k[b-]	*	*k[b-]	*	*k[]	*
*M3/1	*	*M3/1	*	*M3/1	*	*M3/1	*
*met(O)	*	*met(O)	*	*met(O)	*	*met(O)	*
*MM320	*MM320	*MM320	*MM320	*MM320	*MM320	*MM320	*MM320
!!section: Sanctus
!!!OMD: Sanctus
=1-	=1-	=1-	=1-	=1-	=1-	=1-	=1-
0.r	.	0.r	.	0G	San-	1.g	San-
.	.	.	.	.	.	2a/	.
.	.	.	.	1G	.	1b	.
=2	=2	=2	=2	=2	=2	=2	=2
0.r	.	0.r	.	1A	.	1cc	.
.	.	.	.	0G	.	2b\	.
.	.	.	.	.	.	1dd	.
.	.	.	.	.	.	2cc\	.
=3	=3	=3	=3	=3	=3	=3	=3
0.r	.	0.r	.	1G	.	2b\	.
.	.	.	.	.	.	2g/	.
.	.	.	.	1F	.	1a	.
.	.	.	.	1G	.	2.b\	.
.	.	.	.	.	.	4g/	.
=4	=4	=4	=4	=4	=4	=4	=4
0.r	.	0.r	.	1B-	.	1.g	.
.	.	.	.	0A	.	.	.
.	.	.	.	.	.	2f#i/	.
.	.	.	.	.	.	2f#i/	.
.	.	.	.	.	.	2e/	.
=5	=5	=5	=5	=5	=5	=5	=5
0.r	.	0.r	.	0.G	-ctus,	1g	-ctus,
.	.	.	.	.	.	1r	.
.	.	.	.	.	.	[1b	San-
=6	=6	=6	=6	=6	=6	=6	=6
0.r	.	0.r	.	0d	San-	2b\]	.
.	.	.	.	.	.	2a/	.
.	.	.	.	.	.	2b\	.
.	.	.	.	.	.	2dd\	.
.	.	.	.	1e	.	2.cc\	.
.	.	.	.	.	.	4b\	.
=7	=7	=7	=7	=7	=7	=7	=7
0.r	.	0.r	.	1d	.	1.dd	.
.	.	.	.	0f	.	.	.
.	.	.	.	.	.	2cc\	.
.	.	.	.	.	.	1dd	.
=8	=8	=8	=8	=8	=8	=8	=8
0.r	.	0.r	.	1g	.	1.ee	.
.	.	.	.	1e	.	.	.
.	.	.	.	.	.	2cc\	.
.	.	.	.	2.a\	.	1cc	.
.	.	.	.	4g\	.	.	.
=9	=9	=9	=9	=9	=9	=9	=9
0.r	.	0.r	.	2f\	.	2dd\	.
.	.	.	.	2e\	.	2.ee\	.
.	.	.	.	1a	.	.	.
.	.	.	.	.	.	4dd\	.
.	.	.	.	.	.	2cc\	.
.	.	.	.	2g\	.	2b\	.
.	.	.	.	2a\	.	[2a/	.
=10	=10	=10	=10	=10	=10	=10	=10
0.r	.	0.r	.	2.f\	.	2a/]	.
.	.	.	.	.	.	2dd\	.
.	.	.	.	8e\L	.	.	.
.	.	.	.	8d\J	.	.	.
.	.	.	.	2c\	.	2ee\	.
.	.	.	.	2f\	.	1dd	.
.	.	.	.	1e	.	.	.
.	.	.	.	.	.	2cc#i\	.
=11	=11	=11	=11	=11	=11	=11	=11
0.r	.	0.r	.	0d	-ctus,	0.dd	-ctus,
.	.	.	.	1d	san-	.	.
=12	=12	=12	=12	=12	=12	=12	=12
0.r	.	[0.G	San-	2d\	-ctus,	0.r	.
.	.	.	.	1g	.	.	.
.	.	.	.	2f\	.	.	.
.	.	.	.	1d	.	.	.
=13	=13	=13	=13	=13	=13	=13	=13
0.d	San-	0.G]	.	0.r	.	0b	san-
.	.	.	.	.	.	1g	.
=14	=14	=14	=14	=14	=14	=14	=14
1d	.	0.G	-ctus,	[0.g	san-	2b\	.
.	.	.	.	.	.	2cc\	.
2B-\	.	.	.	.	.	1.dd	.
2c\	.	.	.	.	.	.	.
1d	.	.	.	.	.	.	.
.	.	.	.	.	.	2cc\	.
=15	=15	=15	=15	=15	=15	=15	=15
1c	.	0c	san-	1g]	.	0ee	-ctus,
0A	.	.	.	1a	.	.	.
.	.	1c	.	2e\	.	1ee	san-
.	.	.	.	2f\	.	.	.
=16	=16	=16	=16	=16	=16	=16	=16
1d	.	1B-	.	2.g\	.	1dd	.
.	.	.	.	4f\	.	.	.
0c	.	0A	.	2a\	.	1ee	.
.	.	.	.	2e\	.	.	.
.	.	.	.	2.f#i\	.	1cc	.
.	.	.	.	4e\	.	.	.
=17	=17	=17	=17	=17	=17	=17	=17
0.d	-ctus,	[0.G	-ctus,	0.g	-ctus,	1.b	.
.	.	.	.	.	.	2cc\	.
.	.	.	.	.	.	1dd	.
=18	=18	=18	=18	=18	=18	=18	=18
0.r	.	0.G_	.	0d	san-	1.b	.
.	.	.	.	.	.	2g/	.
.	.	.	.	2B-\	.	[1g	-ctus,
.	.	.	.	2c\	.	.	.
=19	=19	=19	=19	=19	=19	=19	=19
0B-	san-	0.G_	.	1d	.	1g]	.
.	.	.	.	1G	.	2r	.
.	.	.	.	.	.	1d	san-
1G	.	.	.	2.B-\	.	.	.
.	.	.	.	.	.	[2g/	.
.	.	.	.	4c\	.	.	.
=20	=20	=20	=20	=20	=20	=20	=20
2B-\	.	0.G]	.	2d\	.	2g/]	.
2c\	.	.	.	2e\	.	2g/	.
0d	.	.	.	2d\	-ctus,	2.b\	-ctus,
.	.	.	.	1.g	.	.	.
.	.	.	.	.	.	4cc\	.
.	.	.	.	.	.	1dd	.
=21	=21	=21	=21	=21	=21	=21	=21
1d	.	0.r	.	2f\	san-	0.r	.
.	.	.	.	2.a\	.	.	.
2c\	.	.	.	.	.	.	.
.	.	.	.	4g\	.	.	.
2B-\	.	.	.	2g\	.	.	.
1A	.	.	.	2a\	.	.	.
.	.	.	.	2f\	.	.	.
=22	=22	=22	=22	=22	=22	=22	=22
2B-\	.	0.r	.	2.g\	.	0.r	.
1G	.	.	.	.	.	.	.
.	.	.	.	4f\	.	.	.
.	.	.	.	4e\	.	.	.
.	.	.	.	4d\	.	.	.
2B-\	.	.	.	2d\	.	.	.
2A\	.	.	.	2c\	.	.	.
[2G\	.	.	.	4e\	.	.	.
.	.	.	.	[4d\	.	.	.
=23	=23	=23	=23	=23	=23	=23	=23
2G\]	.	0.r	.	8d\L]	.	0.r	.
.	.	.	.	8c\J	.	.	.
.	.	.	.	4B-\	.	.	.
2F\	.	.	.	2A/	.	.	.
2.G\	.	.	.	2B-\	.	.	.
.	.	.	.	2G/	.	.	.
4F\	.	.	.	.	.	.	.
2E\	.	.	.	2g\	.	.	.
[2D\	.	.	.	2f\	.	.	.
=24	=24	=24	=24	=24	=24	=24	=24
2D\]	.	0.r	.	2d\	.	0.r	.
2G\	.	.	.	2.e\	.	.	.
2F\	.	.	.	.	.	.	.
.	.	.	.	4d\	.	.	.
2D\	.	.	.	1d	.	.	.
1E	.	.	.	.	.	.	.
.	.	.	.	2c#i\	.	.	.
=25	=25	=25	=25	=25	=25	=25	=25
0.D	-ctus,	[0.d	san-	1d	-ctus,	1a	san-
.	.	.	.	0A	.	2f/	.
.	.	.	.	.	.	2g/	.
.	.	.	.	.	.	1a	.
=26	=26	=26	=26	=26	=26	=26	=26
0G	san-	0.d_	.	0.r	.	2b-\	.
.	.	.	.	.	.	2g/	.
.	.	.	.	.	.	2.b-i\	.
.	.	.	.	.	.	4cc\	.
1F	.	.	.	.	.	1a	.
=27	=27	=27	=27	=27	=27	=27	=27
0.G	.	0.d_	.	0.B-	san-	2g/	.
.	.	.	.	.	.	2.dd\	.
.	.	.	.	.	.	4cc\	.
.	.	.	.	.	.	2dd\	.
.	.	.	.	.	.	2b-\	.
.	.	.	.	.	.	4a/	.
.	.	.	.	.	.	4g/	.
=28	=28	=28	=28	=28	=28	=28	=28
0.D	.	0.d]	.	0A	.	1.f#i	.
.	.	.	.	.	.	2g/	.
.	.	.	.	1A	.	2f#i/	.
.	.	.	.	.	.	2e/	.
=29	=29	=29	=29	=29	=29	=29	=29
0d	-ctus,	[0.G	-ctus,	1.B-	-ctus,	1g	-ctus,
.	.	.	.	.	.	1r	.
.	.	.	.	2c\	.	.	.
1B-	.	.	.	1d	.	1g	san-
=30	=30	=30	=30	=30	=30	=30	=30
0.r	.	0.G]	.	1d	.	2a/	.
.	.	.	.	.	.	1b-	.
.	.	.	.	1e	.	.	.
.	.	.	.	.	.	1g	.
.	.	.	.	1d	.	.	.
.	.	.	.	.	.	2g/	.
=31	=31	=31	=31	=31	=31	=31	=31
0.r	.	1d	san-	2r	.	4a/	.
.	.	.	.	.	.	2f/	.
.	.	.	.	2B-\	san-	.	.
.	.	.	.	.	.	4d/	.
.	.	2c\	.	2A/	.	2e/	.
.	.	1d	.	2B-\	.	2d/	.
.	.	.	.	2G/	.	2dd\	.
.	.	2e\	.	2g\	.	2cc\	.
=32	=32	=32	=32	=32	=32	=32	=32
0.r	.	2d\	.	2f\	.	4b-\	.
.	.	.	.	.	.	2a/	.
.	.	1c	.	2.e\	.	.	.
.	.	.	.	.	.	4g/	.
.	.	.	.	.	.	2a/	.
.	.	.	.	4d\	.	.	.
.	.	2B-\	.	1d	.	1g	.
.	.	1A	.	.	.	.	.
.	.	.	.	2c\	.	2f#i/	.
=33	=33	=33	=33	=33	=33	=33	=33
0.r	.	[0.G	-ctus,	0d	-ctus,	0g	-ctus,
.	.	.	.	1r	.	1g	.
=34	=34	=34	=34	=34	=34	=34	=34
0.r	.	0.G]	.	[0.g	do-	0d	.
.	.	.	.	.	.	1r	.
=35	=35	=35	=35	=35	=35	=35	=35
0G	san-	0.r	.	1g]	.	1.dd	do-
.	.	.	.	1d	.	.	.
.	.	.	.	.	.	2cc\	.
1G	-ctus	.	.	1e	.	1b-	.
=36	=36	=36	=36	=36	=36	=36	=36
0F	do-	0.r	.	1.f	.	0a	.
.	.	.	.	2e\	.	.	.
1F	-mi-	.	.	1c	.	1f	.
=37	=37	=37	=37	=37	=37	=37	=37
0G	-nus	0g	san-	1.B-	.	0d	.
.	.	.	.	2c\	.	.	.
1G	de-	1g	-ctus,	1d	.	1b-	.
=38	=38	=38	=38	=38	=38	=38	=38
0.D	-us,	0f	do-	0d	.	2a/	.
.	.	.	.	.	.	2.dd\	.
.	.	.	.	.	.	4cc\	.
.	.	.	.	.	.	2b-\	.
.	.	1f	-mi-	1d	-mi-	1a	-mi-
=39	=39	=39	=39	=39	=39	=39	=39
0.r	.	0g	-nus	0.G	-nus	1g	-nus
.	.	.	.	.	.	0b-	.
.	.	1g	de-	.	.	.	.
=40	=40	=40	=40	=40	=40	=40	=40
0.r	.	0.d	-us,	1r	.	1a	de-
.	.	.	.	1.B-	de-	0f	.
.	.	.	.	2c\	.	.	.
=41	=41	=41	=41	=41	=41	=41	=41
0G	san-	0.r	.	1.d	.	2g/	.
.	.	.	.	.	.	2f/	.
.	.	.	.	.	.	1.d	.
.	.	.	.	1B-	.	.	.
1G	-ctus	.	.	.	.	.	.
.	.	.	.	2G/	.	2e/	.
=42	=42	=42	=42	=42	=42	=42	=42
0F	do-	0.r	.	2.A/	.	2f/	.
.	.	.	.	.	.	2g/	.
.	.	.	.	4B-\	.	.	.
.	.	.	.	2c\	.	1a	.
.	.	.	.	2d\	.	.	.
1F	-mi-	.	.	1A	.	2g/	.
.	.	.	.	.	.	2a/	.
=43	=43	=43	=43	=43	=43	=43	=43
0G	-nus	0g	san-	0B-	.	2d/	.
.	.	.	.	.	.	2.e/	.
.	.	.	.	.	.	4d/	.
.	.	.	.	.	.	1d	.
1G	de-	1g	-ctus	1G	.	.	.
.	.	.	.	.	.	2c#i/	.
=44	=44	=44	=44	=44	=44	=44	=44
0.D	-us	0f	do-	1A	-us,	0d	-us,
.	.	.	.	2F/	de-	.	.
.	.	.	.	2B-\	.	.	.
.	.	1f	-mi-	1A	.	1r	.
=45	=45	=45	=45	=45	=45	=45	=45
0.r	.	0g	-nus	0G	.	0b-	de-
.	.	1e	de-	1A	.	1cc	.
=46	=46	=46	=46	=46	=46	=46	=46
1r	.	0.d	-us	1B-	.	0dd	.
1r	.	.	.	1G	.	.	.
1G	sa-	.	.	1g	.	1b-	.
=47	=47	=47	=47	=47	=47	=47	=47
0A	.	0.r	.	1f	.	1a	.
.	.	.	.	1.e	.	1cc	.
1G	.	.	.	.	.	1b-	.
.	.	.	.	2d\	.	.	.
=48	=48	=48	=48	=48	=48	=48	=48
1F	.	1r	.	1d	.	1.a	.
0E	.	1r	.	1e	.	.	.
.	.	.	.	.	.	1g	.
.	.	1g	sa-	1c	.	.	.
.	.	.	.	.	.	2e/	.
=49	=49	=49	=49	=49	=49	=49	=49
1D	.	0a	.	2.d\	.	2.f/	.
.	.	.	.	8c\L	.	4e/	.
.	.	.	.	8B-\J	.	.	.
1F	.	.	.	2A/	.	4d/	.
.	.	.	.	.	.	4c/	.
.	.	.	.	2F/	.	2d/	.
1E	.	1g	.	1G	-us	2e/	.
.	.	.	.	.	.	2c#i/	.
=50	=50	=50	=50	=50	=50	=50	=50
1D	.	1f	.	2A/	sa-	1d	-us
.	.	.	.	2B-\	.	.	.
0A	-ba-	0e	-ba-	1.c	.	1r	.
.	.	.	.	.	.	[1a	sa-
.	.	.	.	2A/	-ba-	.	.
=51	=51	=51	=51	=51	=51	=51	=51
0D	-oth,	[0.dl	-oth.	0A	-oth,	2a/]	.
.	.	.	.	.	.	2.f/	.
.	.	.	.	.	.	4g/	.
.	.	.	.	.	.	2a/	.
2G\	sa-	.	.	1r	.	4b-\	.
.	.	.	.	.	.	4g/	.
2F\	.	.	.	.	.	2a/	.
=52	=52	=52	=52	=52	=52	=52	=52
2G\	.	0.d_	.	2B-\	sa-	4g/	.
.	.	.	.	.	.	2g/	.
2D\	.	.	.	2A/	.	.	.
.	.	.	.	.	.	4f/	.
2.G\	.	.	.	4G/	.	2g/	.
.	.	.	.	2B-\	.	.	.
.	.	.	.	.	.	2d/	.
2B-\	.	.	.	4c\	.	.	.
.	.	.	.	2d\	.	2.g/	.
4c\	.	.	.	.	.	.	.
2d\	.	.	.	2G/	.	.	.
.	.	.	.	.	.	4a/	.
=53	=53	=53	=53	=53	=53	=53	=53
1.G	.	0.d_	.	2.B-\	.	4b-\	.
.	.	.	.	.	.	4cc\	.
.	.	.	.	.	.	2dd\	.
.	.	.	.	4A/	.	.	.
.	.	.	.	2B-\	.	2g/	.
1.D	-ba-	.	.	2.A/	.	2a/	.
.	.	.	.	.	.	2.f#i/	-ba-
.	.	.	.	4G/	.	.	.
.	.	.	.	2A/	.	.	.
.	.	.	.	.	.	4e/	.
=54	=54	=54	=54	=54	=54	=54	=54
0.Gl	-oth.	0.d]	.	2B-\	-ba-	0.gl	-oth.
.	.	.	.	2G/	.	.	.
.	.	.	.	2.B-\	.	.	.
.	.	.	.	4c\	.	.	.
.	.	.	.	1dl	-oth.	.	.
!!LO:LB:i:g=z
=55||	=55||	=55||	=55||	=55||	=55||	=55||	=55||
*>B	*>B	*>B	*>B	*>B	*>B	*>B	*>B
*clefF4	*	*clefGv2	*	*clefGv2	*	*clefG2	*
*k[b-]	*	*k[b-]	*	*k[b-]	*	*k[]	*
*M3/1	*	*M3/1	*	*M3/1	*	*M3/1	*
*met(O)	*	*met(O)	*	*met(O)	*	*met(O)	*
*MM320	*MM320	*MM320	*MM320	*MM320	*MM320	*MM320	*MM320
!!section: Pleni sunt celi
!!!OMD: Pleni sunt celi
0.r	.	0.r	.	[0.g	Ple-	0g	Ple-
.	.	.	.	.	.	2b\	.
.	.	.	.	.	.	2cc\	.
=56	=56	=56	=56	=56	=56	=56	=56
0.r	.	0.r	.	0g]	.	1dd	-ni
.	.	.	.	.	.	1.ee	sunt
.	.	.	.	1g	-ni	.	.
.	.	.	.	.	.	2dd\	.
=57	=57	=57	=57	=57	=57	=57	=57
0.r	.	0.r	.	1f	sunt	1.dd	ce-
.	.	.	.	0e	.	.	.
.	.	.	.	.	.	1cc#i	.
.	.	.	.	.	.	2b\	.
=58	=58	=58	=58	=58	=58	=58	=58
0.r	.	0.r	.	1d	ce-	1.dd	-li,
.	.	.	.	0f	.	.	.
.	.	.	.	.	.	2cc\	.
.	.	.	.	.	.	1a	.
=59	=59	=59	=59	=59	=59	=59	=59
0.r	.	0.r	.	1e	.	2r	.
.	.	.	.	.	.	2g/	ce-
.	.	.	.	0d	.	2f/	.
.	.	.	.	.	.	2.a/	.
.	.	.	.	.	.	4g/	.
.	.	.	.	.	.	2f/	.
=60	=60	=60	=60	=60	=60	=60	=60
0.r	.	0.r	.	1c	.	2e/	.
.	.	.	.	.	.	2g/	.
.	.	.	.	1d	.	2f/	.
.	.	.	.	.	.	1d	.
.	.	.	.	2G/	.	.	.
.	.	.	.	2B-\	.	2d/	.
=61	=61	=61	=61	=61	=61	=61	=61
0.r	.	0.r	.	1A	.	4e/	.
.	.	.	.	.	.	2f/	.
.	.	.	.	.	.	4e/	.
.	.	.	.	2G/	.	2.g/	.
.	.	.	.	1c	.	.	.
.	.	.	.	.	.	4f/	.
.	.	.	.	.	.	2e/	.
.	.	.	.	2B-\	.	2d/	-li,
=62	=62	=62	=62	=62	=62	=62	=62
0.r	.	0.r	.	1G	-li,	2r	.
.	.	.	.	.	.	1g	ce-
.	.	.	.	2B-\	ce-	.	.
.	.	.	.	2A/	.	1f	.
.	.	.	.	1d	.	.	.
.	.	.	.	.	.	2b-\	.
=63	=63	=63	=63	=63	=63	=63	=63
0.r	.	0.r	.	2c\	.	1a	.
.	.	.	.	1d	.	.	.
.	.	.	.	.	.	2dd\	.
.	.	.	.	2e\	.	2cc\	.
.	.	.	.	2f\	.	2.dd\	.
.	.	.	.	[2d\	.	.	.
.	.	.	.	.	.	4cc\	.
=64	=64	=64	=64	=64	=64	=64	=64
0.r	.	0.r	.	2d\]	.	2b-i\	.
.	.	.	.	2c\	.	2a/	.
.	.	.	.	2B-\	.	2g/	.
.	.	.	.	2G/	.	2b-i\	.
.	.	.	.	1A	.	2a/	.
.	.	.	.	.	.	[2f/	.
=65	=65	=65	=65	=65	=65	=65	=65
0.r	.	0.r	.	2B-\	.	4f/]	.
.	.	.	.	.	.	4d/	.
.	.	.	.	2c\	.	2e/	.
.	.	.	.	2G/	.	1d	.
.	.	.	.	2B-\	.	.	.
.	.	.	.	1A	.	1f	.
=66	=66	=66	=66	=66	=66	=66	=66
0.r	.	0.r	.	2.G/	.	2.b-\	.
.	.	.	.	4E/	.	4g/	.
.	.	.	.	2F/	.	2a/	.
.	.	.	.	2G/	.	2g/	.
.	.	.	.	1A	.	2e/	.
.	.	.	.	.	.	2f#i/	.
=67	=67	=67	=67	=67	=67	=67	=67
0.r	.	0.r	.	0G	-li	0.g	-li
.	.	.	.	1r	.	.	.
=68	=68	=68	=68	=68	=68	=68	=68
0.r	.	0.r	.	1g	et	2r	.
.	.	.	.	.	.	1dd	et
.	.	.	.	2d\	.	.	.
.	.	.	.	1e	.	2b\	.
.	.	.	.	.	.	1cc	.
.	.	.	.	2f\	.	.	.
=69	=69	=69	=69	=69	=69	=69	=69
0.r	.	0.r	.	2g\	ter-	2b\	ter-
.	.	.	.	1c	.	2g/	.
.	.	.	.	.	.	1a	.
.	.	.	.	2f\	.	.	.
.	.	.	.	2e\	.	2g/	.
.	.	.	.	2c\	.	2e/	.
=70	=70	=70	=70	=70	=70	=70	=70
0.r	.	0.r	.	1d	.	2d/	.
.	.	.	.	.	.	2f/	.
.	.	.	.	2A/	.	1e	.
.	.	.	.	2c\	.	.	.
.	.	.	.	2B-\	.	2d/	.
.	.	.	.	2G/	.	2g/	.
=71	=71	=71	=71	=71	=71	=71	=71
0.r	.	0.r	.	1A	.	2f/	.
.	.	.	.	.	.	1a	.
.	.	.	.	2F/	.	.	.
.	.	.	.	2G/	.	2b-i\	.
.	.	.	.	2A/	.	2a/	.
.	.	.	.	2B-\	.	4g/	.
.	.	.	.	.	.	4f/	.
=72	=72	=72	=72	=72	=72	=72	=72
0.r	.	0.r	.	2c\	.	2e/	.
.	.	.	.	1d	-ra,	2f/	.
.	.	.	.	.	.	1d	-ra,
.	.	.	.	2f\	ter-	.	.
.	.	.	.	2e\	.	2c/	ter-
.	.	.	.	2g\	.	2e/	.
=73	=73	=73	=73	=73	=73	=73	=73
0.r	.	0.r	.	2f\	.	2d/	.
.	.	.	.	2d\	.	2f/	.
.	.	.	.	2e\	.	2g/	.
.	.	.	.	1f	.	2a/	.
.	.	.	.	.	.	2.dd\	.
.	.	.	.	[2g\	.	.	.
.	.	.	.	.	.	4cc\	.
=74	=74	=74	=74	=74	=74	=74	=74
0.r	.	0.r	.	2g\]	.	2b\	.
.	.	.	.	1d	.	2a/	.
.	.	.	.	.	.	2.dd\	.
.	.	.	.	1f	.	.	.
.	.	.	.	.	.	4cc\	.
.	.	.	.	.	.	2dd\	.
.	.	.	.	[2e\	.	2ee\	.
=75	=75	=75	=75	=75	=75	=75	=75
0.r	.	0.r	.	2e\]	.	2cc\	.
.	.	.	.	1d	.	2dd\	.
.	.	.	.	.	.	1a	.
.	.	.	.	2c\	.	.	.
.	.	.	.	1d	.	2b-\	.
.	.	.	.	.	.	[2a/	.
=76	=76	=76	=76	=76	=76	=76	=76
0.r	.	0.r	.	2.A/	.	4a/]	.
.	.	.	.	.	.	4g/	.
.	.	.	.	.	.	2f/	.
.	.	.	.	4B-\	.	.	.
.	.	.	.	2c\	.	2e/	.
.	.	.	.	2d\	.	1a	.
.	.	.	.	1B-	.	.	.
.	.	.	.	.	.	2g/	.
=77	=77	=77	=77	=77	=77	=77	=77
0.r	.	0.r	.	0A	-ra,	0.a	-ra,
.	.	.	.	1r	.	.	.
=78	=78	=78	=78	=78	=78	=78	=78
0D	ce-	0.r	.	1.A	ce-	0.r	.
.	.	.	.	2B-\	.	.	.
1E	.	.	.	1c	.	.	.
=79	=79	=79	=79	=79	=79	=79	=79
1D	.	0.r	.	1.d	.	0.r	.
0F	.	.	.	.	.	.	.
.	.	.	.	2c\	.	.	.
.	.	.	.	1d	.	.	.
=80	=80	=80	=80	=80	=80	=80	=80
1G	.	0.r	.	1e	.	0.r	.
1A	.	.	.	1.f	.	.	.
1D	.	.	.	.	.	.	.
.	.	.	.	2d\	.	.	.
=81	=81	=81	=81	=81	=81	=81	=81
1F	.	0.r	.	1.d	.	0.r	.
0E	.	.	.	.	.	.	.
.	.	.	.	2c#i\	.	.	.
.	.	.	.	2c#i\	.	.	.
.	.	.	.	2Bni\	.	.	.
=82	=82	=82	=82	=82	=82	=82	=82
0D	-li	0.r	.	0.d	-li	0.r	.
1G	et	.	.	.	.	.	.
=83	=83	=83	=83	=83	=83	=83	=83
1F	ter-	0.r	.	1r	.	0.r	.
0G	.	.	.	1r	.	.	.
.	.	.	.	1g	et	.	.
=84	=84	=84	=84	=84	=84	=84	=84
1A	.	0.r	.	1f	ter-	0.r	.
1B-	.	.	.	1g	.	.	.
2A\	.	.	.	2.a\	.	.	.
[2d\	.	.	.	.	.	.	.
.	.	.	.	4g\	.	.	.
=85	=85	=85	=85	=85	=85	=85	=85
2d\]	.	0.r	.	2f\	.	0.r	.
2c\	.	.	.	2e\	.	.	.
2d\	.	.	.	2d\	.	.	.
2B-\	.	.	.	1g	.	.	.
1A	.	.	.	.	.	.	.
.	.	.	.	2f#i\	.	.	.
=86	=86	=86	=86	=86	=86	=86	=86
0G	-ra	0.r	.	0.g	-ra	0.r	.
1r	.	.	.	.	.	.	.
=87	=87	=87	=87	=87	=87	=87	=87
2.G\	glo-	0.r	.	0.r	.	0.r	.
4F\	.	.	.	.	.	.	.
2E\	.	.	.	.	.	.	.
1D	.	.	.	.	.	.	.
2G\	.	.	.	.	.	.	.
=88	=88	=88	=88	=88	=88	=88	=88
2F\	.	0.r	.	0.r	.	0.r	.
2A\	.	.	.	.	.	.	.
2B-\	.	.	.	.	.	.	.
1G	.	.	.	.	.	.	.
2F#i\	-ri-	.	.	.	.	.	.
=89	=89	=89	=89	=89	=89	=89	=89
0G	-a,	0.r	.	2.g\	glo-	0.r	.
.	.	.	.	4f\	.	.	.
.	.	.	.	2e\	.	.	.
.	.	.	.	1d	.	.	.
1G	glo-	.	.	.	.	.	.
.	.	.	.	2g\	.	.	.
=90	=90	=90	=90	=90	=90	=90	=90
1d	.	0.r	.	2f\	.	0.r	.
.	.	.	.	2a\	.	.	.
2B-\	.	.	.	2b-\	.	.	.
2c\	.	.	.	1g	.	.	.
1A	.	.	.	.	.	.	.
.	.	.	.	2f\	.	.	.
=91	=91	=91	=91	=91	=91	=91	=91
1G	.	0.r	.	2g\	.	2.g/	glo-
.	.	.	.	2d\	.	.	.
.	.	.	.	.	.	4f/	.
2A\	.	.	.	2r	.	2e/	.
2B-\	.	.	.	2G/	.	1d	.
1G	.	.	.	1B-	.	.	.
.	.	.	.	.	.	2g/	.
=92	=92	=92	=92	=92	=92	=92	=92
2D\	.	0.r	.	1A	.	2f/	.
2F\	.	.	.	.	.	2a/	.
2G\	.	.	.	1d	.	2b-i\	.
2B-\	.	.	.	.	.	1g	.
1A	-ri-	.	.	1c	-ri-	.	.
.	.	.	.	.	.	2f#i/	-ri-
=93	=93	=93	=93	=93	=93	=93	=93
0G	-a,	0.r	.	1d	-a,	0g	-a,
.	.	.	.	1r	.	.	.
1D	glo-	.	.	1d	glo-	1f	glo-
=94	=94	=94	=94	=94	=94	=94	=94
1E	.	0.r	.	2c\	.	1g	.
.	.	.	.	2B-\	.	.	.
0F	.	.	.	1A	.	1.a	.
.	.	.	.	1f	.	.	.
.	.	.	.	.	.	2g/	.
=95	=95	=95	=95	=95	=95	=95	=95
1G	.	0.r	.	2e\	.	1b-i	.
.	.	.	.	1d	.	.	.
2F\	.	.	.	.	.	2a/	.
2G\	.	.	.	2B-\	.	2g/	.
1A	.	.	.	1c	.	2f/	.
.	.	.	.	.	.	[2e/	.
=96	=96	=96	=96	=96	=96	=96	=96
2D\	.	0.r	.	1A	-ri-	4e/]	.
.	.	.	.	.	.	4d/	.
2F\	.	.	.	.	.	1d	.
1E	-ri-	.	.	1G	-a	.	.
.	.	.	.	.	.	2c#i/	-ri-
2D\	-a	.	.	2A/	tu-	1d	-a
2G\	tu-	.	.	2B-\	.	.	.
=97	=97	=97	=97	=97	=97	=97	=97
2F\	.	0.r	.	2A/	.	2r	.
1G	.	.	.	4G/	.	2d/	tu-
.	.	.	.	2B-\	.	.	.
.	.	.	.	.	.	2g/	.
.	.	.	.	4d\	.	.	.
2A\	.	.	.	4c\	.	2f/	.
.	.	.	.	4B-\	.	.	.
2B-\	.	.	.	2d\	.	1g	.
[2c\	.	.	.	4c\	.	.	.
.	.	.	.	[4e\	.	.	.
=98	=98	=98	=98	=98	=98	=98	=98
2c\]	.	0.r	.	4e\]	.	2a/	.
.	.	.	.	4g\	.	.	.
2d\	.	.	.	4f\	.	2b\	.
.	.	.	.	4e\	.	.	.
2c\	.	.	.	2g\	.	1cc	.
2A\	.	.	.	2a\	.	.	.
2B-\	.	.	.	2d\	.	2dd\	.
[2A\	.	.	.	2r	.	2cc\	.
=99	=99	=99	=99	=99	=99	=99	=99
4A\]	.	0.r	.	2c\	.	2a/	.
4F\	.	.	.	.	.	.	.
2G\	.	.	.	2B-\	.	2b-i\	.
2A\	.	.	.	2c\	.	2a/	.
1.D	.	.	.	2d\	.	2r	.
.	.	.	.	1A	.	4d/	.
.	.	.	.	.	.	4e/	.
.	.	.	.	.	.	4f/	.
.	.	.	.	.	.	8e/L	.
.	.	.	.	.	.	8f/J	.
=100	=100	=100	=100	=100	=100	=100	=100
4E\	.	0.r	.	2G/	.	2g/	.
4G\	.	.	.	.	.	.	.
4F\	.	.	.	1d	.	2a/	.
8E\L	.	.	.	.	.	.	.
8F\J	.	.	.	.	.	.	.
2G\	.	.	.	.	.	2b-i\	.
2B-\	.	.	.	2d\	.	1g	.
1A	.	.	.	2.c\	.	.	.
.	.	.	.	.	.	2f#i/	.
.	.	.	.	4B-\	.	.	.
=101	=101	=101	=101	=101	=101	=101	=101
0.Gl	-a.	0.r	.	0.dl	-a.	0.gl	-a.
!!LO:LB:i:g=z
=102||	=102||	=102||	=102||	=102||	=102||	=102||	=102||
*>C	*>C	*>C	*>C	*>C	*>C	*>C	*>C
*clefF4	*	*clefGv2	*	*clefGv2	*	*clefG2	*
*k[b-]	*	*k[b-]	*	*k[b-]	*	*k[]	*
*M2/1	*	*M2/1	*	*M2/1	*	*M2/1	*
*met(C)	*	*met(C)	*	*met(C)	*	*met(C)	*
*MM480	*MM480	*MM480	*MM480	*MM480	*MM480	*MM480	*MM480
!!section: Osanna I
!!!OMD: Osanna I
[0d	O-	[0G	O-	[0g	O-	[0b	O-
=103.	=103.	=103.	=103.	=103.	=103.	=103.	=103.
0d]	.	0G_	.	0g]	.	0b]	.
=104	=104	=104	=104	=104	=104	=104	=104
1.B-	-san-	0G_	.	0d	.	0g	.
2c\	.	.	.	.	.	.	.
=105.	=105.	=105.	=105.	=105.	=105.	=105.	=105.
[0d	-na,	0G]	.	1g	.	1.b	-san-
.	.	.	.	[1g	-san-	.	.
.	.	.	.	.	.	2cc\	.
=106	=106	=106	=106	=106	=106	=106	=106
0d]	.	[0G	-sa-	1g]	.	1dd	.
.	.	.	.	2f\	.	[1dd	.
.	.	.	.	2e\	.	.	.
=107.	=107.	=107.	=107.	=107.	=107.	=107.	=107.
1r	.	0G]	.	1d	.	2dd\]	.
.	.	.	.	.	.	2cc\	.
1G	O-	.	.	[1e	.	1b	.
=108	=108	=108	=108	=108	=108	=108	=108
1A	.	[0c	.	1e]	.	[0a	.
[1F	-san-	.	.	[1f	.	.	.
=109.	=109.	=109.	=109.	=109.	=109.	=109.	=109.
1F]	.	0c_	.	0f]	.	1a]	.
1G	.	.	.	.	.	1b	.
=110	=110	=110	=110	=110	=110	=110	=110
0A	.	0c_	.	0e	.	[0cc	.
=111.	=111.	=111.	=111.	=111.	=111.	=111.	=111.
[0F	.	0c]	.	[0f	.	1cc]	.
.	.	.	.	.	.	1b	.
=112	=112	=112	=112	=112	=112	=112	=112
0F]	.	[0c	-na,	0f]	.	0a	.
=113.	=113.	=113.	=113.	=113.	=113.	=113.	=113.
0C	-na,	0c]	.	1e	-na,	[0g	-na,
.	.	.	.	1c	.	.	.
=114	=114	=114	=114	=114	=114	=114	=114
0G	O-	[0B-	O-	0d	O-	0g]	.
=115.	=115.	=115.	=115.	=115.	=115.	=115.	=115.
[0E-	-san-	0B-_	.	0G	.	1r	.
.	.	.	.	.	.	1g	O-
=116	=116	=116	=116	=116	=116	=116	=116
0E-]	.	0B-_	.	0e-	.	1b-	.
.	.	.	.	.	.	1a	.
=117.	=117.	=117.	=117.	=117.	=117.	=117.	=117.
0G	.	0B-]	.	[0d	.	0g	.
=118	=118	=118	=118	=118	=118	=118	=118
[0D	-na,	[0A	-san-	0d]	.	1.f#	-san-
.	.	.	.	.	.	2g/	.
=119.	=119.	=119.	=119.	=119.	=119.	=119.	=119.
0D]	.	0A_	.	1.f#	-san-	1a	.
.	.	.	.	.	.	1dd	.
.	.	.	.	2g\	.	.	.
=120	=120	=120	=120	=120	=120	=120	=120
0r	.	0A_	.	1a	.	1cc	.
.	.	.	.	1e	.	[1a	.
=121.	=121.	=121.	=121.	=121.	=121.	=121.	=121.
0D	.	0A]	.	1.f#i	.	2a/]	.
.	.	.	.	.	.	2b\	.
.	.	.	.	.	.	2a/	.
.	.	.	.	2e\	.	2g/	.
=122	=122	=122	=122	=122	=122	=122	=122
[0d	.	[0G	-na	[0g	-na	0b	-na
=123.	=123.	=123.	=123.	=123.	=123.	=123.	=123.
0d]	.	0G]	.	0g]	.	1g	in
.	.	.	.	.	.	[1dd	.
=124	=124	=124	=124	=124	=124	=124	=124
1B-	in	0r	.	1d	in	1dd]	.
1c	ex-	.	.	1e	ex-	1cc	.
=125.	=125.	=125.	=125.	=125.	=125.	=125.	=125.
0d	-cel-	0r	.	3%2f#iV	-cel-	0a	ex-
.	.	.	.	3g\Z	.	.	.
.	.	.	.	3%2f#iV	.	.	.
.	.	.	.	3e\Z	.	.	.
=126	=126	=126	=126	=126	=126	=126	=126
[0G	.	[0d	in	0g	-sis,	0b	-cel-
=127.	=127.	=127.	=127.	=127.	=127.	=127.	=127.
1G]	.	0d]	.	0r	.	1g	.
1F	.	.	.	.	.	1a	.
=128	=128	=128	=128	=128	=128	=128	=128
1G	.	1B-	ex-	0G	in	1b-i	.
1E	.	1c	.	.	.	[1g	.
=129.	=129.	=129.	=129.	=129.	=129.	=129.	=129.
0D	-sis,	0d	-cel-	0A	ex-	1g]	.
.	.	.	.	.	.	1f#i	.
=130	=130	=130	=130	=130	=130	=130	=130
0r	.	[0G	-sis,	1.B-	-cel-	[0g	-sis,
.	.	.	.	2c\	.	.	.
=131.	=131.	=131.	=131.	=131.	=131.	=131.	=131.
0r	.	0G]	.	0d	.	0g]	.
=132	=132	=132	=132	=132	=132	=132	=132
0G	ex-	1.d	in	0g	.	1r	.
.	.	.	.	.	.	1b-	ex-
.	.	2e\	ex-	.	.	.	.
=133.	=133.	=133.	=133.	=133.	=133.	=133.	=133.
1A	-cel-	1f	-cel-	1c	-sis,	1a	-cel-
[1G	.	1g	.	1d	.	[1b-i	.
=134	=134	=134	=134	=134	=134	=134	=134
1G]	.	0e	.	0r	.	1b-]	.
1c	.	.	.	.	.	1cc	.
=135.	=135.	=135.	=135.	=135.	=135.	=135.	=135.
1B-	.	1d	.	0r	.	1dd	.
1G	.	[1g	.	.	.	1b-i	.
=136	=136	=136	=136	=136	=136	=136	=136
0d	.	1g]	.	0r	.	0a	.
.	.	1f#i	.	.	.	.	.
=137.	=137.	=137.	=137.	=137.	=137.	=137.	=137.
[0G	-sis,	0g	-sis,	0d	in	0g	.
=138	=138	=138	=138	=138	=138	=138	=138
0G]	.	1d	in	1.B-	ex-	0b-	.
.	.	1e	ex-	.	.	.	.
.	.	.	.	2c\	.	.	.
=139.	=139.	=139.	=139.	=139.	=139.	=139.	=139.
1D	in	1f	-cel-	1d	-cel-	0a	-sis,
1F	ex-	[1d	.	1A	.	.	.
=140	=140	=140	=140	=140	=140	=140	=140
0E	-cel-	1d]	.	2G/	.	0r	.
.	.	.	.	1G	.	.	.
.	.	1c#i	.	.	.	.	.
.	.	.	.	2F/	.	.	.
=141.	=141.	=141.	=141.	=141.	=141.	=141.	=141.
0D	.	0d	.	0A	.	1a	ex-
.	.	.	.	.	.	[1dd	-cel-
=142	=142	=142	=142	=142	=142	=142	=142
0G	.	1G	.	1B-	.	2dd\]	.
.	.	.	.	.	.	2cc\	.
.	.	[1d	.	1G	.	1b-i	.
=143.	=143.	=143.	=143.	=143.	=143.	=143.	=143.
0F	.	1d]	.	1A	.	0a	.
.	.	[1c	.	1f	.	.	.
=144	=144	=144	=144	=144	=144	=144	=144
0G	.	1c]	.	1e	.	1g	.
.	.	1B-	.	[1d	.	[1g	.
=145.	=145.	=145.	=145.	=145.	=145.	=145.	=145.
0D	.	0A	.	1d]	.	1g]	.
.	.	.	.	1d	.	1f#i	.
=146	=146	=146	=146	=146	=146	=146	=146
0Gl	-sis.	0Gl	-sis.	0dl	-sis.	0gl	-sis.
!!LO:LB:i:g=z
=147||	=147||	=147||	=147||	=147||	=147||	=147||	=147||
*>D	*>D	*>D	*>D	*>D	*>D	*>D	*>D
*clefF4	*	*clefGv2	*	*clefGv2	*	*clefG2	*
*k[b-]	*	*k[b-]	*	*k[b-]	*	*k[]	*
*M2/1	*	*M2/1	*	*M2/1	*	*M2/1	*
*met(C)	*	*met(C)	*	*met(C)	*	*met(C)	*
*MM480	*MM480	*MM480	*MM480	*MM480	*MM480	*MM480	*MM480
!!section: Benedictus
!!!OMD: Benedictus
0r	.	0r	.	[0G	Be-	[0g	Be-
=148.	=148.	=148.	=148.	=148.	=148.	=148.	=148.
0r	.	0r	.	0G_	.	0g]	.
=149	=149	=149	=149	=149	=149	=149	=149
0r	.	0r	.	0G_	.	1.b	-ne-
.	.	.	.	.	.	2cc\	.
=150.	=150.	=150.	=150.	=150.	=150.	=150.	=150.
0r	.	0r	.	0G]	.	1dd	-dic-
.	.	.	.	.	.	[1ee	.
=151	=151	=151	=151	=151	=151	=151	=151
0r	.	0r	.	0A	.	2ee\]	.
.	.	.	.	.	.	2dd\	.
.	.	.	.	.	.	1cc	.
=152.	=152.	=152.	=152.	=152.	=152.	=152.	=152.
0r	.	0r	.	0G	-ne-	1b	.
.	.	.	.	.	.	[1dd	.
=153	=153	=153	=153	=153	=153	=153	=153
0r	.	0r	.	1B-	-dic-	1dd]	.
.	.	.	.	1c	.	1cc	.
=154.	=154.	=154.	=154.	=154.	=154.	=154.	=154.
0r	.	0r	.	1.d	.	1b	.
.	.	.	.	.	.	[1a	.
.	.	.	.	2e\	.	.	.
=155	=155	=155	=155	=155	=155	=155	=155
0r	.	0r	.	1f	.	1a]	.
.	.	.	.	1e	.	[1g	.
=156.	=156.	=156.	=156.	=156.	=156.	=156.	=156.
0r	.	0r	.	0g	.	1g]	.
.	.	.	.	.	.	[1dd	.
=157	=157	=157	=157	=157	=157	=157	=157
0r	.	0r	.	1f	.	2dd\]	.
.	.	.	.	.	.	2cc\	.
.	.	.	.	1e	.	[1cc	.
=158.	=158.	=158.	=158.	=158.	=158.	=158.	=158.
0r	.	0r	.	0d	.	1cc]	.
.	.	.	.	.	.	1b	.
=159	=159	=159	=159	=159	=159	=159	=159
0r	.	0r	.	[0c	-tus,	0cc	-tus,
=160.	=160.	=160.	=160.	=160.	=160.	=160.	=160.
0r	.	0r	.	0c]	.	1r	.
.	.	.	.	.	.	1cc	be-
=161	=161	=161	=161	=161	=161	=161	=161
0r	.	0r	.	0d	be-	1b	-ne-
.	.	.	.	.	.	[1a	-dic-
=162.	=162.	=162.	=162.	=162.	=162.	=162.	=162.
0r	.	0r	.	1.A	-ne-	2a/]	.
.	.	.	.	.	.	2g/	.
.	.	.	.	.	.	1f	.
.	.	.	.	2B-\	.	.	.
=163	=163	=163	=163	=163	=163	=163	=163
0r	.	0r	.	1c	-dic-	1e	.
.	.	.	.	1d	.	[1d	.
=164.	=164.	=164.	=164.	=164.	=164.	=164.	=164.
0r	.	0r	.	1B-	.	1d]	.
.	.	.	.	1c	.	1a	.
=165	=165	=165	=165	=165	=165	=165	=165
0r	.	0r	.	1G	.	2b\	.
.	.	.	.	.	.	2g/	.
.	.	.	.	1B-	.	[1g	.
=166.	=166.	=166.	=166.	=166.	=166.	=166.	=166.
0r	.	0r	.	0A	.	2g/]	.
.	.	.	.	.	.	2f#i/	.
.	.	.	.	.	.	2f#i/	.
.	.	.	.	.	.	2e/	.
=167	=167	=167	=167	=167	=167	=167	=167
0r	.	0r	.	0G	-tus	1.g	-tus
.	.	.	.	.	.	2f/	.
=168.	=168.	=168.	=168.	=168.	=168.	=168.	=168.
0r	.	0r	.	0r	.	2e/	.
.	.	.	.	.	.	2d/	.
.	.	.	.	.	.	1d	.
=169	=169	=169	=169	=169	=169	=169	=169
0r	.	0r	.	1d	qui	1r	.
.	.	.	.	1B-	.	1dd	qui
=170.	=170.	=170.	=170.	=170.	=170.	=170.	=170.
0r	.	0r	.	1G	.	1b	.
.	.	.	.	[1c	ve-	1g	.
=171	=171	=171	=171	=171	=171	=171	=171
0r	.	0r	.	2c\]	.	1.cc	ve-
.	.	.	.	2d\	.	.	.
.	.	.	.	[1e	.	.	.
.	.	.	.	.	.	2dd\	.
=172.	=172.	=172.	=172.	=172.	=172.	=172.	=172.
0r	.	0r	.	2e\]	.	1.ee	.
.	.	.	.	2f\	.	.	.
.	.	.	.	1g	.	.	.
.	.	.	.	.	.	2dd\	.
=173	=173	=173	=173	=173	=173	=173	=173
0r	.	0r	.	1.a	.	1ff	.
.	.	.	.	.	.	1ee	.
.	.	.	.	2g\	.	.	.
=174.	=174.	=174.	=174.	=174.	=174.	=174.	=174.
0r	.	0r	.	1a	.	1cc	.
.	.	.	.	1f	.	[1dd	.
=175	=175	=175	=175	=175	=175	=175	=175
0r	.	0r	.	0e	.	2dd\]	.
.	.	.	.	.	.	2cc#i\	.
.	.	.	.	.	.	2cc#i\	.
.	.	.	.	.	.	2b\	.
=176.	=176.	=176.	=176.	=176.	=176.	=176.	=176.
0r	.	0r	.	[0d	-nit,	[0dd	-nit,
=177	=177	=177	=177	=177	=177	=177	=177
0r	.	0r	.	0d_	.	0dd]	.
=178.	=178.	=178.	=178.	=178.	=178.	=178.	=178.
0r	.	0r	.	0d]	.	0r	.
=179	=179	=179	=179	=179	=179	=179	=179
*M3/1	*	*M3/1	*	*M2/1	*	*M3/1	*
*met(3)	*	*met(3)	*	*met()	*	*met(3)	*
*MM720	*MM720	*MM720	*MM720	*MM720	*MM720	*MM720	*MM720
*	*	*	*	*rscale:2/3	*	*	*
0.r	.	0.r	.	0.g	qui	0dd	qui
.	.	.	.	.	.	1b	.
=180.	=180.	=180.	=180.	=180.	=180.	=180.	=180.
0.r	.	0.r	.	0.f	.	1cc	ve-
.	.	.	.	.	.	0a	.
=181	=181	=181	=181	=181	=181	=181	=181
*	*	*	*	*M3/1	*	*	*
*	*	*	*	*met(3)	*	*	*
*	*	*	*	*rscale:1	*	*	*
0.r	.	0.r	.	0g	ve-	1b	.
.	.	.	.	.	.	0g	.
.	.	.	.	1e	.	.	.
=182.	=182.	=182.	=182.	=182.	=182.	=182.	=182.
0.r	.	0.r	.	1f	.	1.a	.
.	.	.	.	0d	.	.	.
.	.	.	.	.	.	2g/	.
.	.	.	.	.	.	1f	.
=183	=183	=183	=183	=183	=183	=183	=183
0.r	.	0.r	.	1e	.	1g	.
.	.	.	.	0c	.	1e	-nit,
.	.	.	.	.	.	1r	.
=184.	=184.	=184.	=184.	=184.	=184.	=184.	=184.
0.r	.	0.r	.	1.d	.	1d	ve-
.	.	.	.	.	.	1f	.
.	.	.	.	2c\	.	.	.
.	.	.	.	1B-	.	1g	.
=185	=185	=185	=185	=185	=185	=185	=185
0.r	.	0.r	.	1A	.	1a	.
.	.	.	.	1.c	.	1g	.
.	.	.	.	.	.	1cc	.
.	.	.	.	2B-\	.	.	.
=186.	=186.	=186.	=186.	=186.	=186.	=186.	=186.
0.r	.	0.r	.	1.G	.	1b	.
.	.	.	.	.	.	1.dd	.
.	.	.	.	2F/	.	.	.
.	.	.	.	1G	.	.	.
.	.	.	.	.	.	2g/	.
=187	=187	=187	=187	=187	=187	=187	=187
0.r	.	0.r	.	1E	.	1g	.
.	.	.	.	1F	.	1a	.
.	.	.	.	1G	.	1b	.
=188.	=188.	=188.	=188.	=188.	=188.	=188.	=188.
0.r	.	0.r	.	1B-	.	1.g	.
.	.	.	.	0A	.	.	.
.	.	.	.	.	.	2f#i/	.
.	.	.	.	.	.	2f#i/	.
.	.	.	.	.	.	2e/	.
=189	=189	=189	=189	=189	=189	=189	=189
0.r	.	0.r	.	[0.G	-nit	0.g	-nit
=190.	=190.	=190.	=190.	=190.	=190.	=190.	=190.
0.r	.	0.r	.	0.G]	.	0.r	.
=191	=191	=191	=191	=191	=191	=191	=191
0.r	.	0.r	.	0.r	.	1d	in
.	.	.	.	.	.	1e	.
.	.	.	.	.	.	1d	.
=192.	=192.	=192.	=192.	=192.	=192.	=192.	=192.
0.r	.	0.r	.	1G	in	1g	no-
.	.	.	.	1A	.	1f	.
.	.	.	.	1G	.	1g	.
=193	=193	=193	=193	=193	=193	=193	=193
0.r	.	0.r	.	1c	no-	1a	.
.	.	.	.	1B-	.	1g	.
.	.	.	.	1c	.	1a	.
=194.	=194.	=194.	=194.	=194.	=194.	=194.	=194.
0.r	.	0.r	.	1d	.	1b	.
.	.	.	.	1c	.	1cc	.
.	.	.	.	1d	.	1a	-mi-
=195	=195	=195	=195	=195	=195	=195	=195
0.r	.	0.r	.	1e	.	2g/	-ne,
.	.	.	.	.	.	2r	.
.	.	.	.	1f	.	1dd	in
.	.	.	.	1d	-mi-	1b	.
=196.	=196.	=196.	=196.	=196.	=196.	=196.	=196.
0.r	.	0.r	.	2c\	-ne,	1cc	no-
.	.	.	.	2r	.	.	.
.	.	.	.	1g	in	1.b	.
.	.	.	.	1e	.	.	.
.	.	.	.	.	.	2g/	.
=197	=197	=197	=197	=197	=197	=197	=197
0.r	.	0.r	.	1f	no-	1a	.
.	.	.	.	1.e	.	1g	.
.	.	.	.	.	.	1e	.
.	.	.	.	2c\	.	.	.
=198.	=198.	=198.	=198.	=198.	=198.	=198.	=198.
0.r	.	0.r	.	1d	.	1r	.
.	.	.	.	1c	.	1.e	.
.	.	.	.	1A	.	.	.
.	.	.	.	.	.	2f/	.
=199	=199	=199	=199	=199	=199	=199	=199
0.r	.	0.r	.	1r	.	1g	.
.	.	.	.	1.A	.	1a	.
.	.	.	.	.	.	1e	.
.	.	.	.	2B-\	.	.	.
=200.	=200.	=200.	=200.	=200.	=200.	=200.	=200.
0.r	.	0.r	.	1c	.	1r	.
.	.	.	.	1d	.	1d	.
.	.	.	.	[1A	.	1e	.
=201	=201	=201	=201	=201	=201	=201	=201
0.r	.	0.r	.	1A]	.	1f	.
.	.	.	.	1G	.	1g	.
.	.	.	.	[1d	.	1a	.
=202.	=202.	=202.	=202.	=202.	=202.	=202.	=202.
0.r	.	0.r	.	1d]	.	1b	.
.	.	.	.	0c	.	2cc\	.
.	.	.	.	.	.	2b\	.
.	.	.	.	.	.	2a/	.
.	.	.	.	.	.	2g/	.
=203	=203	=203	=203	=203	=203	=203	=203
0.r	.	0.r	.	1B-	.	0g	.
.	.	.	.	0A	-mi-	.	.
.	.	.	.	.	.	1f#i	-mi-
=204.	=204.	=204.	=204.	=204.	=204.	=204.	=204.
0.r	.	0.r	.	0.G	-ne	0.g	-ne
=205	=205	=205	=205	=205	=205	=205	=205
*M2/1	*	*M2/1	*	*M2/1	*	*M2/1	*
*met(C)	*	*met(C)	*	*met(C)	*	*met(C)	*
*MM480	*MM480	*MM480	*MM480	*MM480	*MM480	*MM480	*MM480
0r	.	0r	.	0r	.	0r	.
=206.	=206.	=206.	=206.	=206.	=206.	=206.	=206.
0r	.	0r	.	1.B-	do-	1.g	do-
.	.	.	.	2A/	.	2f/	.
=207	=207	=207	=207	=207	=207	=207	=207
0r	.	0r	.	1B-	.	1g	.
.	.	.	.	1c	.	[1a	.
=208.	=208.	=208.	=208.	=208.	=208.	=208.	=208.
0r	.	0r	.	1.d	.	2a/]	.
.	.	.	.	.	.	1b-i	.
.	.	.	.	2c\	.	2a/	.
=209	=209	=209	=209	=209	=209	=209	=209
0r	.	0r	.	1d	.	1b-i	.
.	.	.	.	1e	.	[1cc	.
=210.	=210.	=210.	=210.	=210.	=210.	=210.	=210.
0r	.	0r	.	1f	.	2cc\]	.
.	.	.	.	.	.	1dd	.
.	.	.	.	[1g	.	.	.
.	.	.	.	.	.	2cc\	.
=211	=211	=211	=211	=211	=211	=211	=211
0r	.	0r	.	2g\]	.	1b-i	.
.	.	.	.	1d	.	.	.
.	.	.	.	.	.	1a	.
.	.	.	.	2c\	.	.	.
=212.	=212.	=212.	=212.	=212.	=212.	=212.	=212.
0r	.	0r	.	1B-	.	2r	.
.	.	.	.	.	.	2g/	.
.	.	.	.	1A	.	2a/	.
.	.	.	.	.	.	2cc\	.
=213	=213	=213	=213	=213	=213	=213	=213
0r	.	0r	.	2r	.	2b-\	.
.	.	.	.	2G/	.	2g/	.
.	.	.	.	2A/	.	2f/	.
.	.	.	.	2c\	.	2a/	.
=214.	=214.	=214.	=214.	=214.	=214.	=214.	=214.
0r	.	0r	.	2B-\	.	2g/	.
.	.	.	.	4A/	.	1dd	.
.	.	.	.	4G/	.	.	.
.	.	.	.	2F/	.	.	.
.	.	.	.	2A/	.	2cc\	.
=215	=215	=215	=215	=215	=215	=215	=215
0r	.	0r	.	2G/	.	1b-	.
.	.	.	.	1d	.	.	.
.	.	.	.	.	.	1a	.
.	.	.	.	2c\	.	.	.
=216.	=216.	=216.	=216.	=216.	=216.	=216.	=216.
0r	.	0r	.	1B-	.	2r	.
.	.	.	.	.	.	2g/	.
.	.	.	.	1A	.	2a/	.
.	.	.	.	.	.	2f/	.
=217	=217	=217	=217	=217	=217	=217	=217
0r	.	0r	.	2r	.	2g/	.
.	.	.	.	2G/	.	2b-i\	.
.	.	.	.	2A/	.	2cc\	.
.	.	.	.	2F/	.	[2a/	.
=218.	=218.	=218.	=218.	=218.	=218.	=218.	=218.
0r	.	0r	.	2G/	.	4a/]	.
.	.	.	.	.	.	4g/	.
.	.	.	.	2B-\	.	1g	.
.	.	.	.	1A	-mi-	.	.
.	.	.	.	.	.	2f#i/	-mi-
=219	=219	=219	=219	=219	=219	=219	=219
0r	.	0r	.	0Gl	-ni.	0gl	-ni.
!!LO:LB:i:g=z
*	*	*	*	*rscale:1	*	*	*
=220||	=220||	=220||	=220||	=220||	=220||	=220||	=220||
*>E	*>E	*>E	*>E	*>E	*>E	*>E	*>E
*clefF4	*	*clefGv2	*	*clefGv2	*	*clefG2	*
*k[b-]	*	*k[b-]	*	*k[b-]	*	*k[]	*
*M3/1	*	*M3/1	*	*M3/1	*	*M3/1	*
*met(O)	*	*met(O)	*	*met(O)	*	*met(O)	*
*MM320	*MM320	*MM320	*MM320	*MM320	*MM320	*MM320	*MM320
!!section: Osanna II
!!!OMD: Osanna II
1r	.	0G	O-	0g	O-	0dd	O-
1r	.	.	.	.	.	.	.
1G	O-	1G	-san-	1g	-san-	1b	-san-
=221	=221	=221	=221	=221	=221	=221	=221
1A	-san-	0c	-na	1e	-na	1cc	-na
0F	.	.	.	0f	in	1.a	in
.	.	1c	in	.	.	.	.
.	.	.	.	.	.	2g/	.
=222	=222	=222	=222	=222	=222	=222	=222
1G	-na	1B-	ex-	1d	ex-	1g	ex-
1.c	in	0A	-cel-	1e	-cel-	2a/	-cel-
.	.	.	.	.	.	1cc	.
.	.	.	.	1f	.	.	.
2B-\	ex-	.	.	.	.	2dd\	.
=223	=223	=223	=223	=223	=223	=223	=223
1d	-cel-	1G	-sis,	1g	.	1b	-sis,
1B-	.	1r	.	0d	.	1g	.
[1G	.	1r	.	.	.	1dd	.
=224	=224	=224	=224	=224	=224	=224	=224
1G]	.	1d	O-	1B-	.	2r	.
.	.	.	.	.	.	2g/	O-
2F\	.	1d	-san-	1A	.	2a/	.
2D\	.	.	.	.	.	2f/	.
1E	.	1G	-na,	1c	.	1g	.
=225	=225	=225	=225	=225	=225	=225	=225
0D	-sis,	1r	.	1d	-sis,	2f/	-san-
.	.	.	.	.	.	1a	.
.	.	1d	O-	1r	.	.	.
.	.	.	.	.	.	2f/	.
1D	O-	1d	-san-	1f	O-	1a	-na
=226	=226	=226	=226	=226	=226	=226	=226
1G	-san-	1d	-na	1g	-san-	2g/	in
.	.	.	.	.	.	2b\	.
1A	.	0c	in	1e	-na	2a/	.
.	.	.	.	.	.	2.cc\	.
1F	.	.	.	1f	in	.	.
.	.	.	.	.	.	4b\	.
.	.	.	.	.	.	2a/	.
=227	=227	=227	=227	=227	=227	=227	=227
1G	.	1B-	ex-	0d	ex-	1g	ex-
0D	-na	1A	.	.	.	1a	-cel-
.	.	1A	-cel-	1d	-cel-	2f#i/	.
.	.	.	.	.	.	2e/	.
=228	=228	=228	=228	=228	=228	=228	=228
1d	in	0.G	-sis,	0B-	-sis,	0.g	-sis.
1d	ex-	.	.	.	.	.	.
1d	-cel-	.	.	1G	.	.	.
=229	=229	=229	=229	=229	=229	=229	=229
0.G	-sis,	1d	in	1r	.	0.r	.
.	.	1d	ex-	[0g	O-	.	.
.	.	1d	-cel-	.	.	.	.
=230	=230	=230	=230	=230	=230	=230	=230
0.r	.	0.G	-sis,	0g]	.	1.dd	O-
.	.	.	.	.	.	2cc\	.
.	.	.	.	1g	-san-	1b	-san-
=231	=231	=231	=231	=231	=231	=231	=231
1d	O-	0.r	.	1f	-na	1a	-na
2B-\	.	.	.	2d\	in	1g	in
2c\	.	.	.	2g\	ex-	.	.
1A	-san-	.	.	2a\	-cel-	1cc	ex-
.	.	.	.	2f\	.	.	.
=232	=232	=232	=232	=232	=232	=232	=232
0.G	-na,	0g	O-	1g	-sis,	1b	-cel-
.	.	.	.	0d	.	1.dd	.
.	.	1g	-san-	.	.	.	.
.	.	.	.	.	.	2cc\	.
=233	=233	=233	=233	=233	=233	=233	=233
0d	O-	0f	-na	0.r	.	1a	.
.	.	.	.	.	.	1.b	.
1d	-san-	1f	in	.	.	.	.
.	.	.	.	.	.	2a/	.
=234	=234	=234	=234	=234	=234	=234	=234
0c	-na	0g	ex-	0e	O-	1.cc	.
.	.	.	.	.	.	2dd\	.
1c	in	1g	-cel-	1e	-san-	1ee	.
=235	=235	=235	=235	=235	=235	=235	=235
1.B-	ex-	0.d	-sis,	1f	-na	0.dd	-sis,
.	.	.	.	1.g	in	.	.
2G\	.	.	.	.	.	.	.
1B-	.	.	.	.	.	.	.
.	.	.	.	4f\	.	.	.
.	.	.	.	4g\	.	.	.
=236	=236	=236	=236	=236	=236	=236	=236
1A	-cel-	0.r	.	0a	ex-	2r	.
.	.	.	.	.	.	1cc	O-
0A	.	.	.	.	.	.	.
.	.	.	.	.	.	2b\	.
.	.	.	.	1a	-cel-	2cc\	.
.	.	.	.	.	.	2a/	.
=237	=237	=237	=237	=237	=237	=237	=237
0.G	-sis,	0g	O-	0.d	-sis,	1b	-san-
.	.	.	.	.	.	2cc\	.
.	.	.	.	.	.	1dd	.
.	.	1g	-san-	.	.	.	.
.	.	.	.	.	.	2b\	.
=238	=238	=238	=238	=238	=238	=238	=238
0D	O-	0f	-na	1r	.	2.dd\	.
.	.	.	.	.	.	4cc\	.
.	.	.	.	1r	.	2.a/	.
.	.	.	.	.	.	4b\	.
1D	-san-	1f	in	1d	O-	2a/	.
.	.	.	.	.	.	4g/	.
.	.	.	.	.	.	4f/	.
=239	=239	=239	=239	=239	=239	=239	=239
1E	-na	0g	ex-	1Bni	-san-	1e	-na
0C	.	.	.	0c	-na	1r	.
.	.	1e	-cel-	.	.	1g	in
=240	=240	=240	=240	=240	=240	=240	=240
0D	in	0.d	-sis,	1.A	in	2f/	ex-
.	.	.	.	.	.	2g/	.
.	.	.	.	.	.	1a	.
.	.	.	.	1d	ex-	.	.
1G	ex-	.	.	.	.	2b-i\	-cel-
.	.	.	.	2B-\	.	2g/	.
=241	=241	=241	=241	=241	=241	=241	=241
1F	-cel-	1r	.	2c\	-cel-	1a	.
.	.	.	.	2d\	.	.	.
0E	.	1r	.	0e	.	2b\	.
.	.	.	.	.	.	1cc#i	.
.	.	1g	ex-	.	.	.	.
.	.	.	.	.	.	2b\	.
=242	=242	=242	=242	=242	=242	=242	=242
1D	-sis,	0a	-cel-	1f	-sis.	2dd\	-sis,
.	.	.	.	.	.	2r	.
1A	in	.	.	1e	.	2ee\	in
.	.	.	.	.	.	2cc\	.
2B-\	ex-	1g	.	1d	.	2dd\	ex-
2c\	.	.	.	.	.	2ee\	.
=243	=243	=243	=243	=243	=243	=243	=243
1d	-cel-	1f	.	1r	.	2ff\	-cel-
.	.	.	.	.	.	1dd	.
0A	.	0e	.	[0a	O-	.	.
.	.	.	.	.	.	2cc#i\	.
.	.	.	.	.	.	2cc#i\	.
.	.	.	.	.	.	2b\	.
=244	=244	=244	=244	=244	=244	=244	=244
0.D	-sis,	0.d	-sis,	0a]	.	0dd	-sis,
.	.	.	.	1f	.	1r	.
=245	=245	=245	=245	=245	=245	=245	=245
0.G	.	0.r	.	1d	-san-	1.b	O-
.	.	.	.	1.g	.	.	.
.	.	.	.	.	.	2cc\	.
.	.	.	.	.	.	1dd	.
.	.	.	.	2f\	.	.	.
=246	=246	=246	=246	=246	=246	=246	=246
1r	.	0G	O-	0d	-na	1dd	-san-
1r	.	.	.	.	.	1b	.
1B-	in	1G	-san-	1d	in	1g	-na
=247	=247	=247	=247	=247	=247	=247	=247
2A\	ex-	0c	-na	2e\	ex-	1.a	in
1F	-cel-	.	.	1f	-cel-	.	.
2G\	.	.	.	2e\	.	2g/	ex-
1A	.	1c	in	1c	.	2e/	-cel-
.	.	.	.	.	.	2f/	.
=248	=248	=248	=248	=248	=248	=248	=248
1G	-sis,	1B-	ex-	0d	-sis.	1g	.
0D	.	0A	-cel-	.	.	2a/	.
.	.	.	.	.	.	2.f/	.
.	.	.	.	1r	.	.	.
.	.	.	.	.	.	4g/	.
.	.	.	.	.	.	2a/	.
=249	=249	=249	=249	=249	=249	=249	=249
1r	.	1G	-sis,	2d\	O-	2b-\	-sis,
.	.	.	.	2e\	.	2g/	.
1G	O-	1r	.	2d\	.	2r	.
.	.	.	.	1g	-san-	1dd	O-
1E	.	1r	.	.	.	.	.
.	.	.	.	2e\	.	2cc\	.
=250	=250	=250	=250	=250	=250	=250	=250
2D\	-san-	1d	O-	2f\	.	2dd\	-san-
1G	.	.	.	2.g\	.	1b-i	.
.	.	1d	-san-	.	.	.	.
.	.	.	.	4f\	.	.	.
2F\	.	.	.	1d	.	2a/	.
1E-i	.	1G	-na,	.	.	2b-i\	.
.	.	.	.	2c\	.	2g/	.
=251	=251	=251	=251	=251	=251	=251	=251
1D	-na,	1r	.	1.d	-na,	2f/	.
.	.	.	.	.	.	1a	.
2r	.	1d	O-	.	.	.	.
1G	O-	.	.	2.B-\	O-	1b-i	-na,
.	.	1d	-san-	.	.	.	.
.	.	.	.	4c\	.	.	.
2F\	.	.	.	2d\	.	2a/	.
=252	=252	=252	=252	=252	=252	=252	=252
1B-	-san-	1.d	-na	1G	-san-	2r	.
.	.	.	.	.	.	2g/	in
1A	-na	.	.	1F	-na	2a/	.
.	.	1.c	in	.	.	2.f/	.
1F	in	.	.	1A	in	.	.
.	.	.	.	.	.	4g/	.
.	.	.	.	.	.	2a/	ex-
=253	=253	=253	=253	=253	=253	=253	=253
1G	ex-	1B-	ex-	1G	ex-	2d/	-cel-
.	.	.	.	.	.	2g/	.
0D	-cel-	0A	-cel-	0d	-cel-	2a/	.
.	.	.	.	.	.	1f#i	.
.	.	.	.	.	.	2e/	.
=254	=254	=254	=254	=254	=254	=254	=254
0.Gl	-sis.	0.Gl	-sis.	0.dl	-sis.	0.gl	-sis.
==	==	==	==	==	==	==	==
*-	*-	*-	*-	*-	*-	*-	*-
!!!RDF**kern: l=long note in original notation
!!!RDF**kern: i=editorial accidental
!!!RDF**kern: V=start of tuplet marker
!!!RDF**kern: Z=end of tuplet marker
!!!ENC:	Planchart/Rodin
!!!END:	2013/12/07/
!!!EED:	Jesse Rodin
!!!EEV:	2013/12/09/
!!!ONB:	Translated from SCORE and edited on 2013/12/09/ by Craig Sapp
!!muse2ps: T^@{OPR}^u^@{ONM}{. }@{OTL}^C^@{COM}^i2I150v85,85,85,130c180
